X: 127
T: Missa Sine nomine I / Kyrie
N: Derived from Rue1028a-Missa_Sine_nomine_I-Kyrie.krn
C: Pierre de la Rue
%%abc-version 2.0
%%abcx-abcm2ps-target-version 5.9.1 (29 Sep 2008)
%%abc-creator hum2abc beta
%%abcx-conversion-date 2019/02/17 08:01:15
%%abc-edited-by Jesse Rodin
%%abc-edited-by Chris Gage 06-10-2013
%%abcx-initial-encoding-date 2013/08/04/
%%humdrum-veritas 758603449
%%humdrum-veritas-data 953281859
%%linebreak <none>
%%barnumbers 0
L: 1/4
M: 2/1
Q: 1/2=120
%%staves [1 2 3 4]
V: 1 clef=treble
V: 2 clef=treble-8
V: 3 clef=treble-8
V: 4 clef=bass
K: F
[V:1] z8 | 
[V:2] G6G2 | 
[V:3] z8 | 
[V:4] z8 | 
[V:1] G6G2 | 
[V:2] B4c4 | 
[V:3] z8 | 
[V:4] z8 | 
[V:1] B4c4 | 
[V:2] d4_e4 | 
[V:3] z8 | 
[V:4] z8 | 
[V:1] d8 | 
[V:2] d2g4fe | 
[V:3] G6G2 | 
[V:4] G,6G,2 | 
[V:1] z4G4 | 
[V:2] d4e4 | 
[V:3] B4c4 | 
[V:4] G,4E,4 | 
[V:1] F2A4B2 | 
[V:2] f8 | 
[V:3] d8 | 
[V:4] D,8 | 
[V:1] c6B2 | 
[V:2] g8 | 
[V:3] _e6d2 | 
[V:4] C,4C,2G,2- | 
[V:1] B2A2B2A2 | 
[V:2] z8 | 
[V:3] d2c2d4 | 
[V:4] G,2A,2G,2F,2 | 
[V:1] A2G2A2D2 | 
[V:2] z4z2g2 | 
[V:3] c6B2 | 
[V:4] F,2E,2F,2G,2 | 
[V:1] z2D2D3E | 
[V:2] g2f2g2f2 | 
[V:3] B2A2B4 | 
[V:4] D,4z2D,2 | 
[V:1] FGA3FB2- | 
[V:2] f3ef2d2 | 
[V:3] A6G2 | 
[V:4] D,3C,D,2B,,2 | 
[V:1] B2A2B2d2- | 
[V:2] e2f2d4- | 
[V:3] G2F2G4 | 
[V:4] C,2D,2G,,2B,2- | 
[V:1] d2c2c2B2 | 
[V:2] d2e2f2g2 | 
[V:3] z8 | 
[V:4] B,2A,2A,2G,2 | 
[V:1] c2B4A2 | 
[V:2] f2g4e2 | 
[V:3] z2d4c2 | 
[V:4] A,2G,4A,2 | 
[V:1] A2G2A2d2- | 
[V:2] f2e2f2d2- | 
[V:3] c2B2c2B2- | 
[V:4] F,2G,2F,2B,,2- | 
[V:1] d2c2c2B2 | 
[V:2] d2e2c2d2 | 
[V:3] B2A2A2G2 | 
[V:4] B,,2C,2A,,2B,,2 | 
[V:1] c2A2B2A2- | 
[V:2] c2f2B2f2- | 
[V:3] A2d4c2 | 
[V:4] A,,2F,2G,2A,2 | 
[V:1] A2G2G2^F2 | 
[V:2] fed3cd2 | 
[V:3] c2B2A4 | 
[V:4] F,2G,2D,4 | 
[V:1] G8 ||  
[V:2] B8 ||  
[V:3] G8 ||  
[V:4] G,,8 ||  
[V:1]  [K:F] [K:clef=treble][M:2/1]z8 | 
[V:2]  [K:F] [K:clef=treble-8][M:2/1]g4g4- | 
[V:3]  [K:F] [K:clef=treble-8][M:2/1]z8 | 
[V:4]  [K:F] [K:clef=bass][M:2/1]z4G,4 | 
[V:1] d4d4- | 
[V:2] g2fed4- | 
[V:3] z4d4 | 
[V:4] G,6F,E, | 
[V:1] d2cBA4- | 
[V:2] d4d4 | 
[V:3] d6cB | 
[V:4] D,8 | 
[V:1] A4A4 | 
[V:2] f6ed | 
[V:3] A8 | 
[V:4] D,4F,4- | 
[V:1] c6B2 | 
[V:2] c3defe2 | 
[V:3] A4c4- | 
[V:4] F,2E,D,C,4 | 
[V:1] A4G4 | 
[V:2] f2F2G4 | 
[V:3] c4c4 | 
[V:4] F,4E,4 | 
[V:1] F4z2F2 | 
[V:2] A2BABAB2- | 
[V:3] d8- | 
[V:4] D,8 | 
[V:1] B4A4 | 
[V:2] BGg4^f2 | 
[V:3] d8 | 
[V:4] B,,2G,,2D,4 | 
[V:1] G2B4c2 | 
[V:2] g6e2 | 
[V:3] z8 | 
[V:4] G,,4z4 | 
[V:1] d2e3dd2- | 
[V:2] d2g3fed | 
[V:3] z8 | 
[V:4] z8 | 
[V:1] d2^c2d4 | 
[V:2] e4d4- | 
[V:3] z4G2B2- | 
[V:4] z4G,4- | 
[V:1] z8 | 
[V:2] d2G2A2B2- | 
[V:3] B2c2d2e2- | 
[V:4] G,2E,2F,2G,2- | 
[V:1] G8 | 
[V:2] BAGFG4 | 
[V:3] edd4^c2 | 
[V:4] G,F,E,D,E,4 | 
[V:1] F8 | 
[V:2] A4d4- | 
[V:3] d8 | 
[V:4] D,8 | 
[V:1] B8 | 
[V:2] d4d4 | 
[V:3] z8 | 
[V:4] G,8 | 
[V:1] c8 | 
[V:2] e8 | 
[V:3] G8 | 
[V:4] C,8 | 
[V:1] A8 | 
[V:2] f4d4 | 
[V:3] F8 | 
[V:4] D,8 | 
[V:1] G8- | 
[V:2] z4G4- | 
[V:3] B8 | 
[V:4] _E,8 | 
[V:1] G8 | 
[V:2] G4G4 | 
[V:3] c8 | 
[V:4] C,8 | 
[V:1] F8 | 
[V:2] d8- | 
[V:3] A8 | 
[V:4] D,8 | 
[V:1] B8- | 
[V:2] d8 | 
[V:3] G8- | 
[V:4] G,,8- | 
[V:1] B8 | 
[V:2] d8 | 
[V:3] G8 | 
[V:4] G,,8 | 
[V:1] A8 | 
[V:2] f8- | 
[V:3] F8 | 
[V:4] D,8 | 
[V:1] d8- | 
[V:2] f8 | 
[V:3] B8- | 
[V:4] B,,8- | 
[V:1] d8 | 
[V:2] f8- | 
[V:3] B8 | 
[V:4] B,,8 | 
[V:1] c8 | 
[V:2] f8 | 
[V:3] A8 | 
[V:4] F,8 | 
[V:1] B8 | 
[V:2] B8 | 
[V:3] d8- | 
[V:4] G,8 | 
[V:1] A8- | 
[V:2] f8- | 
[V:3] d8 | 
[V:4] D,8 | 
[V:1] A8 | 
[V:2] f8 | 
[V:3] c8 | 
[V:4] F,8 | 
[V:1] G8 | 
[V:2] d8 | 
[V:3] B8 | 
[V:4] G,8 | 
[V:1] A6F2 | 
[V:2] d6cB | 
[V:3] A6d2- | 
[V:4] D,8- | 
[V:1] F8- | 
[V:2] A4d4 | 
[V:3] d2c2B4 | 
[V:4] D,8- | 
[V:1] F8 ||  
[V:2] d8 ||  
[V:3] A8 ||  
[V:4] D,8 ||  
[V:1]  [K:F] [K:clef=treble][M:2/1]z8 | 
[V:2]  [K:F] [K:clef=treble-8][M:2/1]z4d3e | 
[V:3]  [K:F] [K:clef=treble-8][M:2/1]A8 | 
[V:4]  [K:F] [K:clef=bass][M:2/1]D,3E,F,2D,2- | 
[V:1] z2G3AB2 | 
[V:2] f2d4g2- | 
[V:3] d8 | 
[V:4] D,2G,4G,2- | 
[V:1] G2c4=B2 | 
[V:2] g2g2g4 | 
[V:3] e4d4 | 
[V:4] G,2C,2G,4 | 
[V:1] c4c4 | 
[V:2] e3fg3f | 
[V:3] c8 | 
[V:4] z2C,3D,E,2 | 
[V:1] z8 | 
[V:2] edc3de2 | 
[V:3] z2A3Bc2 | 
[V:4] C,2F,4E,2 | 
[V:1] z2F3GA2 | 
[V:2] c2d2A4 | 
[V:3] A2d4c2 | 
[V:4] F,2D,3E,F,2 | 
[V:1] F2B4A2 | 
[V:2] z8 | 
[V:3] d8 | 
[V:4] D,2G,4F,2 | 
[V:1] B4d4- | 
[V:2] B8- | 
[V:3] z2D3EF2 | 
[V:4] G,2G,,2B,,4- | 
[V:1] d4c4 | 
[V:2] B4c3d | 
[V:3] D2G4^F2 | 
[V:4] B,,2A,,G,,A,,4 | 
[V:1] B3AGFG2 | 
[V:2] _e2d4cB | 
[V:3] G4d4- | 
[V:4] G,,8 | 
[V:1] F2B4A2 | 
[V:2] d2f3ec2 | 
[V:3] d4c4 | 
[V:4] B,,4F,4 | 
[V:1] B2F2G2F2- | 
[V:2] d4G2A2- | 
[V:3] B6AG | 
[V:4] B,,4_E,2D,2 | 
[V:1] FEC2D2G2- | 
[V:2] AGE2F2G2 | 
[V:3] A4B4- | 
[V:4] C,4B,,2G,,2 | 
[V:1] GAB2G2A2- | 
[V:2] B3c/d/_e2c2 | 
[V:3] B2G2c4- | 
[V:4] G,4z2F,2- | 
[V:1] ABc2F2B2- | 
[V:2] f4f2g2- | 
[V:3] c2A2d4- | 
[V:4] F,G,A,2B,2G,2- | 
[V:1] Bcd2G2A2- | 
[V:2] g2f2e3d | 
[V:3] d2B2c4 | 
[V:4] G,F,D,2C,4 | 
[V:1] ABc2F2B2- | 
[V:2] c4z2d2- | 
[V:3] _e4d4 | 
[V:4] C,4D,2G,2- | 
[V:1] B2AGc2BA- | 
[V:2] d2g4f2- | 
[V:3] z2d2_e2dc- | 
[V:4] G,F,G,2C,2F,2- | 
[V:1] AGG4^F2 | 
[V:2] fec2d4 | 
[V:3] cBAGA4 | 
[V:4] F,G,E,2D,4 | 
[V:1] G8 |]  
[V:2] d8 |]  
[V:3] G8 |]  
[V:4] G,,8 |]  



